svg/fluentui-system-icons/ic_fluent_people_community_add_20_regular.svg

<svg width="20" height="20" viewBox="0 0 20 20" fill="none" xmlns="http://www.w3.org/2000/svg">
<path d="M6 1C7.51878 1 8.75 2.23122 8.75 3.75C8.75 5.26878 7.51878 6.5 6 6.5C4.48122 6.5 3.25 5.26878 3.25 3.75C3.25 2.23122 4.48122 1 6 1ZM6 2C5.0335 2 4.25 2.7835 4.25 3.75C4.25 4.7165 5.0335 5.5 6 5.5C6.9665 5.5 7.75 4.7165 7.75 3.75C7.75 2.7835 6.9665 2 6 2ZM6.68252 7.5H2.5C1.67157 7.5 1 8.17157 1 9V9.5C1 11.0874 2.20563 12.7119 4.31486 13.2845C4.50546 12.9426 4.77396 12.6501 5.09636 12.4309C3.09851 12.1138 2 10.7591 2 9.5V9C2 8.72386 2.22386 8.5 2.5 8.5H6.32501C6.39687 8.14601 6.51859 7.81013 6.68252 7.5ZM10 6.5C9.14603 6.5 8.38298 6.88925 7.87858 7.5C7.63948 7.78952 7.4585 8.12881 7.35352 8.5C7.28608 8.73842 7.25 8.98999 7.25 9.25C7.25 10.32 7.86115 11.2473 8.75342 11.7019C9.01825 11.8368 9.30785 11.9301 9.61357 11.9731C9.79805 11.6171 10.0203 11.2838 10.275 10.9785C10.1854 10.9927 10.0936 11 10 11C9.74757 11 9.50763 10.9466 9.29086 10.8504C8.67768 10.5782 8.25 9.96407 8.25 9.25C8.25 8.9816 8.31042 8.72731 8.41841 8.5C8.66377 7.98351 9.15468 7.60627 9.74028 7.51914C9.82502 7.50653 9.91175 7.5 10 7.5C10.0883 7.5 10.175 7.50653 10.2597 7.51914C10.8453 7.60627 11.3362 7.98351 11.5816 8.5C11.6896 8.72731 11.75 8.9816 11.75 9.25C11.75 9.43658 11.7208 9.61634 11.6667 9.78496C12.0057 9.58086 12.3684 9.41226 12.7498 9.28433C12.7499 9.27291 12.75 9.26146 12.75 9.25C12.75 8.98999 12.7139 8.73842 12.6465 8.5C12.5415 8.12881 12.3605 7.78952 12.1214 7.5C11.617 6.88925 10.854 6.5 10 6.5ZM18.6769 10.9217C18.4421 10.6478 18.1808 10.3973 17.897 10.1741C17.9653 9.95065 18 9.72381 18 9.5V9C18 8.72386 17.7761 8.5 17.5 8.5H13.675C13.6031 8.14601 13.4814 7.81013 13.3175 7.5H17.5C18.3284 7.5 19 8.17157 19 9V9.5C19 9.98056 18.8895 10.4645 18.6769 10.9217ZM9.20703 13H6.5C6.06797 13 5.6786 13.1826 5.40489 13.4749C5.15376 13.7431 5 14.1036 5 14.5V15C5 16.9714 6.85951 19 10 19C10.4213 19 10.8196 18.9635 11.1935 18.8955C10.8455 18.6333 10.5297 18.3308 10.2529 17.9949C10.1699 17.9983 10.0856 18 10 18C7.43216 18 6 16.4376 6 15V14.5C6 14.2239 6.22386 14 6.5 14H9.02242C9.05337 13.6566 9.11588 13.3223 9.20703 13ZM16.75 3.75C16.75 2.23122 15.5188 1 14 1C12.4812 1 11.25 2.23122 11.25 3.75C11.25 5.26878 12.4812 6.5 14 6.5C15.5188 6.5 16.75 5.26878 16.75 3.75ZM12.25 3.75C12.25 2.7835 13.0335 2 14 2C14.9665 2 15.75 2.7835 15.75 3.75C15.75 4.7165 14.9665 5.5 14 5.5C13.0335 5.5 12.25 4.7165 12.25 3.75ZM14.5 19C16.9853 19 19 16.9853 19 14.5C19 12.0147 16.9853 10 14.5 10C12.0147 10 10 12.0147 10 14.5C10 16.9853 12.0147 19 14.5 19ZM14.5 12C14.7761 12 15 12.2239 15 12.5V14H16.5C16.7761 14 17 14.2239 17 14.5C17 14.7761 16.7761 15 16.5 15H15V16.5C15 16.7761 14.7761 17 14.5 17C14.2239 17 14 16.7761 14 16.5V15H12.5C12.2239 15 12 14.7761 12 14.5C12 14.2239 12.2239 14 12.5 14H14V12.5C14 12.2239 14.2239 12 14.5 12Z" fill="#212121"/>
</svg>

<svg xmlns="http://www.w3.org/2000/svg" width="20" height="20"><path d="M6 1a2.75 2.75 0 1 1 0 5.5A2.75 2.75 0 0 1 6 1Zm0 1a1.75 1.75 0 1 0 0 3.5A1.75 1.75 0 0 0 6 2Zm.683 5.5H2.5A1.5 1.5 0 0 0 1 9v.5c0 1.587 1.206 3.212 3.315 3.784.19-.341.459-.634.781-.853C3.1 12.114 2 10.759 2 9.5V9a.5.5 0 0 1 .5-.5h3.825c.072-.354.194-.69.358-1ZM10 6.5a2.744 2.744 0 0 0-2.646 2 2.752 2.752 0 0 0 2.26 3.473c.184-.356.406-.69.661-.995a1.756 1.756 0 0 1-.984-.128 1.75 1.75 0 1 1 2.376-1.065 5.475 5.475 0 0 1 1.083-.5V9.25a2.753 2.753 0 0 0-.629-1.75c-.504-.61-1.267-1-2.121-1Zm8.677 4.422a5.531 5.531 0 0 0-.78-.748c.068-.223.103-.45.103-.674V9a.5.5 0 0 0-.5-.5h-3.825a3.726 3.726 0 0 0-.357-1H17.5A1.5 1.5 0 0 1 19 9v.5c0 .48-.11.964-.323 1.422ZM9.207 13H6.5A1.496 1.496 0 0 0 5 14.5v.5c0 1.971 1.86 4 5 4 .421 0 .82-.037 1.194-.105a5.535 5.535 0 0 1-.941-.9A6.18 6.18 0 0 1 10 18c-2.568 0-4-1.562-4-3v-.5a.5.5 0 0 1 .5-.5h2.522a5.48 5.48 0 0 1 .185-1Zm7.543-9.25a2.75 2.75 0 1 0-5.5 0 2.75 2.75 0 0 0 5.5 0Zm-4.5 0a1.75 1.75 0 1 1 3.5 0 1.75 1.75 0 0 1-3.5 0ZM14.5 19a4.5 4.5 0 1 0 0-9 4.5 4.5 0 0 0 0 9Zm0-7a.5.5 0 0 1 .5.5V14h1.5a.5.5 0 0 1 0 1H15v1.5a.5.5 0 0 1-1 0V15h-1.5a.5.5 0 0 1 0-1H14v-1.5a.5.5 0 0 1 .5-.5Z"/></svg>
